svgs/regular/person-circle-minus.svg

<svg xmlns="http://www.w3.org/2000/svg" viewBox="0 0 576 512"><!--! Font Awesome Pro 6.4.2 by @fontawesome - https://fontawesome.com License - https://fontawesome.com/license (Commercial License) Copyright 2023 Fonticons, Inc. --><path d="M112 48a48 48 0 1 1 96 0 48 48 0 1 1 -96 0zm32 128.1V304h32V176.1c-.7 0-1.5-.1-2.3-.1H146.3c-.8 0-1.5 0-2.3 .1zM144 352V488c0 13.3-10.7 24-24 24s-24-10.7-24-24V223.6L52.9 299.8c-6.5 11.5-21.2 15.6-32.7 9.1s-15.6-21.2-9.1-32.7L69.7 172.7c15.6-27.6 44.9-44.7 76.6-44.7h27.5c31.7 0 61 17.1 76.6 44.7L297 255.1c-11.7 14-21.3 29.9-28.3 47.1c-.6-.8-1.1-1.6-1.6-2.4L224 223.6V488c0 13.3-10.7 24-24 24s-24-10.7-24-24V352H144zm144 16a144 144 0 1 1 288 0 144 144 0 1 1 -288 0zm224 0c0-8.8-7.2-16-16-16H368c-8.8 0-16 7.2-16 16s7.2 16 16 16H496c8.8 0 16-7.2 16-16z"/></svg>

<svg xmlns="http://www.w3.org/2000/svg" viewBox="0 0 576 512"><!--! Font Awesome Pro 6.1.1 by @fontawesome - https://fontawesome.com License - https://fontawesome.com/license (Commercial License) Copyright 2022 Fonticons, Inc. --><path d="M208 48C208 74.51 186.5 96 160 96C133.5 96 112 74.51 112 48C112 21.49 133.5 0 160 0C186.5 0 208 21.49 208 48zM144 352V488C144 501.3 133.3 512 120 512C106.7 512 96 501.3 96 488V223.6L52.89 299.8C46.36 311.4 31.72 315.4 20.18 308.9C8.647 302.4 4.585 287.7 11.11 276.2L69.66 172.7C85.27 145.1 114.5 128 146.3 128H173.7C205.5 128 234.7 145.1 250.3 172.7L296.1 255.1C285.2 269.1 275.6 285 268.7 302.3C268.1 301.5 267.6 300.7 267.1 299.8L224 223.6V488C224 501.3 213.3 512 200 512C186.7 512 176 501.3 176 488V352H144zM144 304H176V176.1C175.3 176 174.5 176 173.7 176H146.3C145.5 176 144.7 176 144 176.1V304zM576 368C576 447.5 511.5 512 432 512C352.5 512 288 447.5 288 368C288 288.5 352.5 224 432 224C511.5 224 576 288.5 576 368zM496 351.1H368C359.2 351.1 352 359.2 352 367.1C352 376.8 359.2 383.1 368 383.1H496C504.8 383.1 512 376.8 512 367.1C512 359.2 504.8 351.1 496 351.1z"/></svg>
